X:2 
M:6/8
K:G
T:II. Kal\'a kall\'a (Light bride)
Q:"Teneramente" 1/8=96
L:1/8
%%MIDI voice instrument=41 bank=2
C:Eric Whitacre
zz|!mp!D3C3 | B,3-B,2B, | D3C3 | (("esp."B,>^C)D (!mordent!CB,)A, | G,3)C3 | 
B,3-B,2B, | D3[Q:"rit."]C3 | !diminuendo(!E3-!fermata! !diminuendo)!Ez!fermata!z ||
[Q:"Leggero" 3/8=89]"pizz." !mp! !>![Ae]ae b2g | [M:2/4] !>!a2 !>!a2 | [M:6/8] !>![DA]dA e2c | [M:2/4] !>![Dd]2 !>![DFA]2 | [M:6/8]
!>![Ae]ae b2g | [M:2/4] !>!a2 fg | !>![DAa]dA e2c |[M:2/4] !>!d2 !>!f!>!a | [M:6/8]
!>![Ae]ae b2g | [M:2/4] !>!a2 !>!a2 | [M:6/8] !>![Afd']>d'c' bag | [M:2/4] !>![Af]e !>!d!>!f | [M:6/8]
!>! [gG]3 [Af]3 | [M:3/4] !>![Ge]2!>![Ge]2!>![fAD]2 | [M:6/8] !>!e>ag fed | [M:3/4] \
"arco"!>![B^g]6- &\ 
E2 z2z2 | 
!>![B^g] zz z3 || [Q:"Tempo I"] !mp! D3 C3 | B,3-B,2B, | 
D3C3 | ((B,>^C)D (!mordent!CB,)A,) | G,2 (c (e>d)c| B2) (b !mordent!d>cB | c)z((B/c/) (E/G/)A)(D/F/) | [Q:"rit."]((G/F/E/D/A/F/) !fermata!^G) z!fermata!z ||
[Q:"Tempo II"]"pizz." !mp! !>![Ae]ae b2g | [M:2/4] !>!a2 !>!a2 | [M:6/8] !>![DA]dA e2c | [M:2/4] !>![Dd]2 !>![DFA]2 | [M:6/8]
!>![Ae]ae b2g | [M:2/4] !>!a2 !>!fg | !>![DAf]dA e2c |[M:2/4] !>!d2 !>!f!>!a | [M:6/8]
!>![Ae]ae b2g | [M:2/4] !>!a2 !>!a2 | [M:6/8] !>![Afd']>d'c' bag | [M:2/4] !>![Af]e !>!d!>!f | [M:6/8]
!>! [gG]3 !>![Af]3 | [M:3/4] !>![Ge]2!>![Ge]2!>![fAD]2 | [M:6/8] !>!e>ag fed | [M:3/4] \
"arco"!>![B^g]6- &\ 
E2 z2z2 |
!>![Bg]zz!fermata!z3 ||[Q:"Adagio, espressivo" 1/8=80] Z3 | "arco"!mp!(B,>CD !mordent!(CB,)A,) | E>DC (e>dc | 
(B,/E/)(F/G/)(B/e/)) [Q:"rit."]g3- | !fermata! g3 z3 || [Q:"Tempo II, Con fuoco"]!f! !>![DAf]zz !>![G,Ecg]zz | [M:3/4]!>![Be]2!>![Be]2 !tenuto!A2| [M:6/8]
!>![Ae][Ae]/[Ae]/[Ae] !>![Ae][Ae][Ae]| [M:2/4] !>![Ae][Ae] !>![Ae][Ae]|[M:6/8]!>![Af][Af]/[Af]/[Af] !>![Af][Af][Af]|[M:2/4] !>![Af][Af] !>![Af][Af]| [M:6/8]
!>![Ae][Ae]/[Ae]/[Ae] !>![Ae][Ae][Ae]| [M:2/4] !>![Ae][Ae] !>![Ae][Ae]|[M:6/8]!>![Af][Af]/[Af]/[Af] !>![Af][Af][Af]|[M:2/4] !>![Af][Af] !>![Af][Af]| [M:6/8]
!>![Ae][Ae]/[Ae]/[Ae] !>![Ae][Ae][Ae]| [M:2/4] !>![Ae][Ae] !>![Ae][Ae]|[M:6/8]!>![Af][Af]/[Af]/[Af] !>![Af][Af][Af]|[M:2/4] !>![Af][Af] !>![Af][Af]/[Af]/| [M:6/8]
!>![G,Ecg]zz !>![DAf]zz | [M:3/4] !>![Be]2!>![Be]2!tenuto![DAf]2 | [M:6/8] !>![G,Ecg]zz !>![DAf]zz | [M:3/4] !crescendo(![B^g]6 !crescendo)!| !ff![EB^g]z z2z2 |]

